X: 091
T: the Tars of old England
%R: jig
B: Thompson's Twenty four Country Dances (for the Year 1804) p.9 #1
S: http://folkopedia.efdss.org/images/2/28/Thompson24_1804.PDF  2014-8-2
Z: 2014 John Chambers <jc:trillian.mit.edu>
M: 6/8
L: 1/8
K: Bb
d/e/ |\
f2B BAB | c2d ede | f2B BAB | cAF F2d/e/ |\
f2B BAB | c2d e2e | dbg =ece | f2a/g/ f2 :|
|: f |\
fgf _agf | efd c2d | efe gfe | dec B2F/E/ |\
DFB EGc | FAd GBe | dgf edc | BBB B2 :|
% - - - - - - - - - - - - - - - - - - - - - - - - -
%%begintext align
%% Turn your Partner and cast off, half right
%% and left, lead down the middle up again, and
%% Pousette.
%%endtext
% - - - - - - - - - - - - - - - - - - - - - - - - -
